X: 30870
T: Out On The Ocean
R: jig
M: 6/8
K: Amajor
|:c3 cBA|cec B2 c|AFE A2 B|cec BAF|
E2 c cBA|cec B2 c|AFE A2 B|1 c/B/AA AGF:|2 cAA Ace||
|:f2 f fec|f/f/ff fec|e2 e efg|agf ecB|
A2 B c2 e|faf ecB|AFE A2 B|1 cAA Ace:|2 cAA AGF||

